static/icons/gpg.svg

<?xml version="1.0" encoding="UTF-8" standalone="no"?>
<!-- Created with Inkscape (http://www.inkscape.org/) -->
<svg
   xmlns:dc="http://purl.org/dc/elements/1.1/"
   xmlns:cc="http://web.resource.org/cc/"
   xmlns:rdf="http://www.w3.org/1999/02/22-rdf-syntax-ns#"
   xmlns:svg="http://www.w3.org/2000/svg"
   xmlns="http://www.w3.org/2000/svg"
   xmlns:sodipodi="http://sodipodi.sourceforge.net/DTD/sodipodi-0.dtd"
   xmlns:inkscape="http://www.inkscape.org/namespaces/inkscape"
   id="svg2"
   sodipodi:version="0.32"
   inkscape:version="0.45"
   width="70"
   height="92"
   version="1.0"
   sodipodi:docbase="D:\Desktop"
   sodipodi:docname="GnuPG-Logo.png"
   sodipodi:modified="true">
  <metadata
     id="metadata7">
    <rdf:RDF>
      <cc:Work
         rdf:about="">
        <dc:format>image/svg+xml</dc:format>
        <dc:type
           rdf:resource="http://purl.org/dc/dcmitype/StillImage" />
      </cc:Work>
    </rdf:RDF>
  </metadata>
  <defs
     id="defs5" />
  <sodipodi:namedview
     inkscape:window-height="975"
     inkscape:window-width="1280"
     inkscape:pageshadow="2"
     inkscape:pageopacity="0.0"
     guidetolerance="10.0"
     gridtolerance="10.0"
     objecttolerance="10.0"
     borderopacity="1.0"
     bordercolor="#666666"
     pagecolor="#ffffff"
     id="base"
     width="70px"
     height="92px"
     inkscape:zoom="4"
     inkscape:cx="37.678772"
     inkscape:cy="50.578436"
     inkscape:window-x="-4"
     inkscape:window-y="-4"
     inkscape:current-layer="svg2" />
  <rect
     style="opacity:1;fill:#0093dd;fill-opacity:1;fill-rule:nonzero;stroke:none;stroke-width:2.5;stroke-miterlimit:4;stroke-dasharray:none;stroke-dashoffset:0;stroke-opacity:1"
     id="rect3132"
     width="70"
     height="47.099998"
     x="0"
     y="44.900002" />
  <rect
     style="opacity:1;fill:#0093dd;fill-opacity:1;fill-rule:nonzero;stroke:none;stroke-width:2.5;stroke-miterlimit:4;stroke-dasharray:none;stroke-dashoffset:0;stroke-opacity:1"
     id="rect4103"
     width="15.009007"
     height="19.485378"
     x="4.7396865"
     y="25.468845" />
  <rect
     style="opacity:1;fill:#0093dd;fill-opacity:1;fill-rule:nonzero;stroke:none;stroke-width:2.5;stroke-miterlimit:4;stroke-dasharray:none;stroke-dashoffset:0;stroke-opacity:1"
     id="rect4105"
     width="15.18455"
     height="19.239996"
     x="50.117794"
     y="25.694933" />
  <path
     style="opacity:1;fill:#0093dd;fill-opacity:1;fill-rule:evenodd;stroke:none;stroke-width:1px;stroke-linecap:butt;stroke-linejoin:miter;stroke-opacity:1"
     d="M 35.625,0 C 13.155955,0.16164779 4.75,20.998357 4.75,25.5625 C 10.896546,25.562499 17.561658,25.90625 18.96875,25.90625 C 19.298759,25.90625 19.367598,25.906322 19.6875,25.90625 C 21.365862,19.035999 27.552617,13.9375 34.9375,13.9375 C 42.289526,13.9375 48.445364,18.988532 50.15625,25.8125 C 50.543323,25.812313 50.720292,25.8125 51.125,25.8125 C 63.764162,25.8125 65.25,25.90625 65.25,25.90625 C 65.25,25.90625 60.201152,-0.17554394 35.625,0 z "
     id="path6045" />
  <path
     style="fill:#ffffff;fill-rule:evenodd;stroke:none;stroke-width:0.1;stroke-linecap:butt;stroke-linejoin:miter;stroke-opacity:1;stroke-miterlimit:4;stroke-dasharray:none;fill-opacity:1"
     d="M 10.269321,25.20553 C 21.691029,1.9172856 37.700972,5.1573508 46.958242,6.5921309 C 46.958242,6.5921309 34.785164,0.76242296 23.084029,6.5100997 C 11.608567,12.146925 10.269321,25.20553 10.269321,25.20553 z "
     id="path7026"
     sodipodi:nodetypes="ccsc" />
  <path
     style="fill:#ffffff;fill-rule:evenodd;stroke:none;stroke-width:0.1;stroke-linecap:butt;stroke-linejoin:miter;stroke-opacity:1;stroke-miterlimit:4;stroke-dasharray:none;fill-opacity:1"
     d="M -0.25,68.25 C -0.25,68.25 7.5390098,59.548683 13.8125,57.25 C 22,54.25 32,55.1875 48.5625,51.875 C 54.425075,50.702485 56.25,49.25 65.1875,44.625 C 65.942492,44.234305 70.5625,44.3125 70.5625,44.3125 L 70.1875,50.5625 C 60,61.25 36.75,67.21875 34.8125,67.125 C 54.479984,69.763423 64.97809,59.568082 69.25,58.9375 C 59.3125,80.0625 24.0625,79 24.0625,79 C 44.5,84.5625 61.125,76.25 61.125,76.25 C 51.8125,91.65625 17.4375,89.5625 17.4375,89.5625 C 13.84375,89.875 10.9375,92.1875 10.9375,92.1875 L -0.125,92.5 L -0.25,68.25 z "
     id="path7997"
     sodipodi:nodetypes="cssscccccccccc" />
</svg>

<svg xmlns="http://www.w3.org/2000/svg" width="70" height="92" xmlns:v="https://vecta.io/nano"><g fill="#0093dd"><path d="M0 44.9h70V92H0z"/><path d="M4.74 25.469h15.009v19.485H4.74zm45.378.226h15.185v19.24H50.118z"/><path d="M35.625 0C13.156.162 4.75 20.998 4.75 25.563c6.147 0 12.812.344 14.219.344h.719c1.678-6.87 7.865-11.969 15.25-11.969 7.352 0 13.508 5.051 15.219 11.875h.969l14.125.094S60.201-.176 35.625 0z" fill-rule="evenodd"/></g><path d="M10.269 25.206C21.691 1.917 37.701 5.157 46.958 6.592c0 0-12.173-5.83-23.874-.082-11.475 5.637-12.815 18.695-12.815 18.695zM-.25 68.25s7.789-8.701 14.063-11c8.188-3 18.188-2.062 34.75-5.375 5.863-1.173 7.688-2.625 16.625-7.25.755-.391 5.375-.312 5.375-.312l-.375 6.25C60 61.25 36.75 67.219 34.813 67.125c19.667 2.638 30.166-7.557 34.438-8.187C59.313 80.063 24.063 79 24.063 79c20.438 5.563 37.063-2.75 37.063-2.75-9.312 15.406-43.687 13.313-43.687 13.313-3.594.313-6.5 2.625-6.5 2.625L-.125 92.5-.25 68.25z" fill-rule="evenodd" fill="#fff"/></svg>
